X: 397
T:The Baltimore salute
R:Reel
C:Josie McDermott
Z:Transcribed by Andrew Pickering
M:4/4
L:1/8
K:G
A|B2 eB dBAc|B2 GB AGEG|DGGF GA (3Bcd|egdB ADGA|
B2 ge dBAc|B2 GB AGEG|DGGF GA (3Bcd|egdB G3:|
A|BG G2 gG G2|gdeg dG G2|G2 GA BG (3Bcd|eaga a2 ga|
bgab ge e2| gdeg dG G2|G2 EG DEge|dBAB G3:|
<end>
<start>
